X:502
T:Mr Isaac's Maggot
%%MIDI gchord bcb
%%MIDI beat 100 95 80
%%MIDI program 7
%%MIDI chordprog 7
%%MIDI bassprog 44
S:Colin Hume's website,  colinhume.com  - chords can also be printed below the stave.
Q:1/2=112
M:3/2
L:1/8
K:C
P:A
[| "C"g4 "/"e4 "G"d4 | "Am"cde2 "Dm"d2c2 "G"d2G2 | "C"G2 c2- "/"c2B2 "F"A4 | "Dm"A2 d2- "D7"d2A2 "G"B2G2 |
"C"g4 "/"e4 "G"d4 | "Am"cde2 "Dm"d2c2 "G"d2G2 | "C"G2c2- "/"c2B2 "F"A2fe | "Dm"d2c2 "G7"d2B2 "C"c4 |]
P:B
[| "C"E2G2- "G7"G2A2 "C"G4 | "C"E2G2- "G7"G2AB "C"c2G2 | "C"E2G2- "G7"G2A2 "C"G4 | "C"E2G2- "G7"G2AB "C"c2G2 |
"C"g3f/g/ "F"a3g/f/ "C"g3f/g/ | "F"agfe "Dm"fedc "G7"d2G2 | "C"g3f/g/ "F"a3g/f/ "C"g3f/g/ | "F"agfe "G7"defg "C"e2c2 |
"C"e4 "Dm"f3e/f/ "C/E"g4 | "Am"cde2 "Dm"d2c2 "G7"d2G2 | "C"e4 "Dm"f3e/f/ "C/E"g4 | "C"G2c2 "F"cde2 "G"d2c2 |]

